!!! OTL: Berkowitz18
!!! Chapter: 1
!!! Section: I
!!! Page: 8
!!! Mode: 
!!! Encoder: DJB
**kern
*staff1
*I"Piano
=1-
*clefG2
*k[b-]
*F:
*met(c)
*M4/4
4f/
8e/L
8f/J
4g/
4f/
=2
4e/
4f/
2g/
=3
4g/
8f/L
8g/J
4a/
4g/
=4
4f/
4g/
2a/
=5
4a/
8b-\L
8cc\J
4dd\
4cc\
=6
4b-\
4a/
4g/
4f/
=7
4e/
4d/
4c/
8d/L
8e/J
=8
1f
==
*-
